assets/images/icons/src/hourglass-1.svg

<?xml version="1.0" encoding="utf-8"?>
<!-- Generated by IcoMoon.io -->
<!DOCTYPE svg PUBLIC "-//W3C//DTD SVG 1.1//EN" "http://www.w3.org/Graphics/SVG/1.1/DTD/svg11.dtd">
<svg version="1.1" xmlns="http://www.w3.org/2000/svg" xmlns:xlink="http://www.w3.org/1999/xlink" width="12" height="14" viewBox="0 0 12 14">
<path fill="#444444" d="M11 1q0 2.039-0.832 3.605t-2.082 2.395q1.25 0.828 2.082 2.395t0.832 3.605h0.75q0.109 0 0.18 0.070t0.070 0.18v0.5q0 0.109-0.070 0.18t-0.18 0.070h-11.5q-0.109 0-0.18-0.070t-0.070-0.18v-0.5q0-0.109 0.070-0.18t0.18-0.070h0.75q0-2.039 0.832-3.605t2.082-2.395q-1.25-0.828-2.082-2.395t-0.832-3.605h-0.75q-0.109 0-0.18-0.070t-0.070-0.18v-0.5q0-0.109 0.070-0.18t0.18-0.070h11.5q0.109 0 0.18 0.070t0.070 0.18v0.5q0 0.109-0.070 0.18t-0.18 0.070h-0.75zM10 1h-8q0 0.516 0.070 1h7.859q0.070-0.477 0.070-1zM10 13q0-1.016-0.266-1.949t-0.707-1.625-0.988-1.187-1.141-0.738h-1.797q-0.594 0.242-1.141 0.738t-0.988 1.187-0.707 1.625-0.266 1.949h8z"></path>
</svg>

<svg xmlns="http://www.w3.org/2000/svg" width="12" height="14" viewBox="0 0 12 14"><path fill="#444" d="M11 1q0 2.039-.832 3.605T8.086 7q1.25.828 2.082 2.395T11 13h.75q.109 0 .18.07t.07.18v.5q0 .109-.07.18t-.18.07H.25q-.109 0-.18-.07T0 13.75v-.5q0-.109.07-.18T.25 13H1q0-2.039.832-3.605T3.914 7q-1.25-.828-2.082-2.395T1 1H.25Q.141 1 .07.93T0 .75v-.5Q0 .141.07.07T.25 0h11.5q.109 0 .18.07t.07.18v.5q0 .109-.07.18t-.18.07H11zm-1 0H2q0 .516.07 1h7.859q.07-.477.07-1zm0 12q0-1.016-.266-1.949t-.707-1.625-.988-1.187-1.141-.738H5.101q-.594.242-1.141.738t-.988 1.187-.707 1.625T1.999 13h8z"/></svg>
